abjad-arabic.svg

<svg fill="currentColor" viewBox="0 0 24 24"><path d="M12 4c-1.92 0-3.5 1.58-3.5 3.5 0 .93.38 1.78 1 2.41-1.53 1-2.5 2.71-2.5 4.59 0 3.03 2.47 5.5 5.5 5.5 1.76 0 3.5-.46 5-1.34l-1-1.73c-1.22.7-2.6 1.07-4 1.07-1.94 0-3.5-1.55-3.5-3.5a3.49 3.49 0 0 1 2.59-3.38l5.21-1.4-.52-1.93L11.83 9c-.75-.1-1.33-.72-1.33-1.5 0-.84.66-1.5 1.5-1.5.26 0 .5.07.75.2l1-1.73C13.22 4.16 12.61 4 12 4"/></svg>

<svg  viewBox="0 0 24 24" fill="currentColor"><path  d="M12 4C10.08 4 8.5 5.58 8.5 7.5C8.5 8.43 8.88 9.28 9.5 9.91C7.97 10.91 7 12.62 7 14.5C7 17.53 9.47 20 12.5 20C14.26 20 16 19.54 17.5 18.66L16.5 16.93C15.28 17.63 13.9 18 12.5 18C10.56 18 9 16.45 9 14.5C9 12.91 10.06 11.53 11.59 11.12L16.8 9.72L16.28 7.79L11.83 9C11.08 8.9 10.5 8.28 10.5 7.5C10.5 6.66 11.16 6 12 6C12.26 6 12.5 6.07 12.75 6.2L13.75 4.47C13.22 4.16 12.61 4 12 4Z"/></svg>
